!!!COM: Pepper, Herbert
!!!CDT: b. 1912
!!!OTL: National Anthem, Central African Republic (La Renaissance)
!!!ENC: Davis, Matthew J.
!!Vocal Line Only
**kern
*clefG2
*k[b-]
*X:
*M4/4
=1-
1r
=2
1r
==3
4c
8.f
16g
4a
8a
8a
=4
8a
8a
8.g
16f
2d
=5
4c
8.f
16g
4.a
8a
=6
8a
8a
8.g
16f
2g
=7
4c
8.f
16g
4.a
8a
=8
8a
8a
8.g
16f
2d
=9
4g
8.f
16d
4.c
8f
=10
8d
8f
8.g
16f
2f
=11
4cc
8.cc
16cc
4cc
4cc
=12
8cc
8a
8f
8a
2cc
=13
4cc
8.cc
16cc
4cc
4cc
=14
8cc
8a
8f
8a
2cc
=15
4c
8.f
16g
4.a
8a
=16
8cc
8a
8.g
16f
4dd
4dd
=17
4dd
8.ee
16ff#
4dd
8dd
8b-
=18
8a
8bn
8.dd
16bn
4dd
4dd
==||19
*k[f#]
!Chorus
4r
8d
8g
4b
4b
=20
4b
8b
8a
8g
8e
4d
=21
8r
8d
8g
8b
4dd
4dd
=22
8ee
8dd
8dd
8b
2a
=23
8dd
8b
8a
8g
4a
4g
=24
8g
8a
8cc
8dd
2ee
=25
4r
8gg
8ee
4dd
8.b
16dd
=26
[2dd
8.dd]
16dd
8.dd
16dd
=27
[1ee
=28
4ee]
4r
2r
==|!
*-
